assets/icons/qvision/accessible.svg

<svg width="24" height="24" viewBox="0 0 24 24" fill="none" xmlns="http://www.w3.org/2000/svg">
<g clip-path="url(#clip0_147_3805)">
<path d="M12 6C13.1046 6 14 5.10457 14 4C14 2.89543 13.1046 2 12 2C10.8954 2 10 2.89543 10 4C10 5.10457 10.8954 6 12 6Z" fill="#323232"/>
<path d="M19 13V11C17.46 11.02 15.91 10.25 14.93 9.17004L13.64 7.74004C13.47 7.55004 13.26 7.40004 13.03 7.29004C13.02 7.29004 13.02 7.28004 13.01 7.28004H13C12.65 7.08004 12.25 6.98004 11.81 7.02004C10.76 7.11004 10 8.04004 10 9.09004V15C10 16.1 10.9 17 12 17H17V22H19V16.5C19 15.4 18.1 14.5 17 14.5H14V11.05C15.29 12.12 17.25 12.99 19 13ZM12.83 18C12.42 19.16 11.31 20 10 20C8.34 20 7 18.66 7 17C7 15.69 7.84 14.59 9 14.17V12.1C6.72 12.56 5 14.58 5 17C5 19.76 7.24 22 10 22C12.42 22 14.44 20.28 14.9 18H12.83Z" fill="#323232"/>
</g>
<defs>
<clipPath id="clip0_147_3805">
<rect width="24" height="24" fill="white"/>
</clipPath>
</defs>
</svg>

<svg xmlns="http://www.w3.org/2000/svg" height="24" viewBox="0 0 24 24" width="24"><path d="M0 0h24v24H0z" fill="none"/><circle cx="12" cy="4" r="2"/><path d="M19 13v-2c-1.54.02-3.09-.75-4.07-1.83l-1.29-1.43c-.17-.19-.38-.34-.61-.45-.01 0-.01-.01-.02-.01H13c-.35-.2-.75-.3-1.19-.26C10.76 7.11 10 8.04 10 9.09V15c0 1.1.9 2 2 2h5v5h2v-5.5c0-1.1-.9-2-2-2h-3v-3.45c1.29 1.07 3.25 1.94 5 1.95zm-6.17 5c-.41 1.16-1.52 2-2.83 2-1.66 0-3-1.34-3-3 0-1.31.84-2.41 2-2.83V12.1c-2.28.46-4 2.48-4 4.9 0 2.76 2.24 5 5 5 2.42 0 4.44-1.72 4.9-4h-2.07z"/></svg>
